montaj_assets/luts/montaj-vivid-v1.cube
TITLE "montaj-vivid-v1"
LUT_3D_SIZE 5
DOMAIN_MIN 0.0 0.0 0.0
DOMAIN_MAX 1.0 1.0 1.0
0.000000 0.000000 0.000000
0.140823 0.000000 0.013528
0.358977 0.000000 0.072844
0.718133 0.000000 0.183758
1.000000 0.000000 0.290416
0.000000 0.135352 0.057510
0.152642 0.147883 0.000000
0.407006 0.142278 0.000000
0.800452 0.000000 0.044389
1.000000 0.000000 0.262768
0.000000 0.347410 0.182850
0.000000 0.370739 0.070092
0.383963 0.373902 0.000000
0.806450 0.371046 0.000000
1.000000 0.303248 0.307869
0.000000 0.689122 0.384822
0.000000 0.701033 0.350862
0.137982 0.733888 0.000000
0.738556 0.720367 0.000000
1.000000 0.540457 0.395309
0.000000 0.915038 0.518353
0.000000 0.918990 0.508195
0.000000 0.930952 0.470517
0.000000 0.967347 0.194544
0.980636 0.956899 0.000000
0.000000 0.003934 0.066844
0.144923 0.000000 0.119037
0.361563 0.000000 0.166426
0.719716 0.000000 0.253320
1.000000 0.000000 0.320498
0.000000 0.138507 0.133615
0.148937 0.148937 0.148937
0.426165 0.122698 0.160651
0.800349 0.000000 0.209148
1.000000 0.000000 0.298538
0.000000 0.349068 0.235241
0.000000 0.370944 0.196759
0.384951 0.375992 0.120343
0.840830 0.346041 0.087930
1.000000 0.309293 0.341079
0.000000 0.689802 0.418127
0.000000 0.701468 0.392119
0.000000 0.737797 0.163487
0.740247 0.722019 0.000000
1.000000 0.540488 0.413760
0.000000 0.915238 0.530283
0.000000 0.919170 0.520795
0.000000 0.931071 0.485732
0.000000 0.967227 0.247332
0.981225 0.957474 0.000000
0.000000 0.023719 0.202584
0.158493 0.000000 0.283459
0.367645 0.000000 0.312920
0.724116 0.000000 0.390291
1.000000 0.000000 0.395348
0.000000 0.157701 0.264504
0.138140 0.158379 0.352232
0.422403 0.119484 0.366633
0.799948 0.000000 0.402781
1.000000 0.000000 0.383757
0.000000 0.354080 0.343738
0.000000 0.372149 0.361350
0.376130 0.376130 0.376130
0.842181 0.341653 0.396295
1.000000 0.326225 0.419531
0.000000 0.691824 0.502179
0.000000 0.702783 0.491327
0.000000 0.736197 0.412646
0.744323 0.726002 0.000000
1.000000 0.540561 0.463962
0.000000 0.915840 0.564144
0.000000 0.919716 0.556414
0.000000 0.931433 0.528043
0.000000 0.966881 0.356955
0.982987 0.959196 0.000000
0.000000 0.087713 0.426056
0.146123 0.000000 0.566051
0.392461 0.000000 0.582158
0.734319 0.000000 0.632117
1.000000 0.000000 0.550852
0.000000 0.195365 0.478887
0.028422 0.164608 0.656739
0.425524 0.116554 0.680441
0.798041 0.000000 0.687587
1.000000 0.025901 0.552456
0.000000 0.385466 0.559133
0.000000 0.396139 0.617471
0.362557 0.392707 0.716554
0.836390 0.334225 0.738178
1.000000 0.363192 0.564245
0.000000 0.697557 0.678531
0.000000 0.706678 0.687421
0.000000 0.732783 0.712866
0.750167 0.750167 0.750167
1.000000 0.540618 0.582118
0.000000 0.917605 0.650024
0.000000 0.921322 0.645996
0.000000 0.932522 0.631060
0.000000 0.965991 0.548469
0.986854 0.962974 0.000000
0.000000 0.177513 0.728754
0.000000 0.132215 0.836629
0.278900 0.000000 0.932089
0.574055 0.000000 0.915118
1.000000 0.204526 0.888184
0.000000 0.228859 0.743724
0.000000 0.207651 0.830341
0.242255 0.014553 1.000000
0.593292 0.000000 0.974096
1.000000 0.286478 0.876992
0.000000 0.339659 0.773412
0.000000 0.336554 0.826601
0.104829 0.290162 1.000000
0.589238 0.233420 1.000000
1.000000 0.379539 0.881134
0.000000 0.539851 0.821867
0.000000 0.543066 0.844157
0.000000 0.549203 0.923070
0.480736 0.530174 1.000000
1.000000 0.538537 0.900347
0.000000 0.924959 0.900184
0.000000 0.928094 0.903240
0.000000 0.937423 0.912333
0.000000 0.963908 0.938148
1.000000 1.000000 1.000000
