montaj_assets/luts/montaj-vivid-v1.cube
TITLE "montaj-vivid-v1"
LUT_3D_SIZE 65
DOMAIN_MIN 0.0 0.0 0.0
DOMAIN_MAX 1.0 1.0 1.0
0.000000 0.000000 0.000000
0.000172 0.000000 0.000010
0.001035 0.000000 0.000062
0.002962 0.000000 0.000177
0.006243 0.000000 0.000372
0.011132 0.000000 0.000664
0.017857 0.000000 0.001064
0.026628 0.000000 0.001587
0.037641 0.000000 0.002244
0.050195 0.000000 0.003045
0.062873 0.000000 0.004001
0.075653 0.000000 0.005122
0.088526 0.000000 0.006418
0.101485 0.000000 0.007897
0.114525 0.000000 0.009570
0.127639 0.000000 0.011444
0.140823 0.000000 0.013528
0.154074 0.000000 0.015829
0.167387 0.000000 0.018357
0.180759 0.000000 0.021119
0.194188 0.000000 0.024122
0.207671 0.000000 0.027374
0.221205 0.000000 0.030882
0.234788 0.000000 0.034653
0.248419 0.000000 0.038694
0.262095 0.000000 0.042925
0.275815 0.000000 0.047162
0.289578 0.000000 0.051412
0.303381 0.000000 0.055675
0.317224 0.000000 0.059950
0.331105 0.000000 0.064237
0.345023 0.000000 0.068535
0.358977 0.000000 0.072844
0.373365 0.000000 0.077287
0.388611 0.000000 0.081995
0.404754 0.000000 0.086981
0.421838 0.000000 0.092257
0.439906 0.000000 0.097836
0.459003 0.000000 0.103734
0.479176 0.000000 0.109964
0.500476 0.000000 0.116542
0.522953 0.000000 0.123483
0.546662 0.000000 0.130805
0.571659 0.000000 0.138524
0.598004 0.000000 0.146660
0.625757 0.000000 0.155231
0.654984 0.000000 0.164256
0.685752 0.000000 0.173758
0.718133 0.000000 0.183758
0.752200 0.000000 0.194279
0.788032 0.000000 0.205344
0.825711 0.000000 0.216980
0.865321 0.000000 0.229213
0.906954 0.000000 0.242070
0.950703 0.000000 0.255580
0.994838 0.000000 0.269210
1.000000 0.000000 0.275938
1.000000 0.000000 0.278662
1.000000 0.000000 0.280258
1.000000 0.000000 0.281649
1.000000 0.000000 0.283098
1.000000 0.000000 0.284678
1.000000 0.000000 0.286414
1.000000 0.000000 0.288321
1.000000 0.000000 0.290416
0.000000 0.000160 0.000045
0.000198 0.000187 0.000000
0.001348 0.000175 0.000000
0.003861 0.000073 0.000000
0.007595 0.000000 0.000133
0.012656 0.000000 0.000421
0.019544 0.000000 0.000812
0.028469 0.000000 0.001321
0.039628 0.000000 0.001964
0.051998 0.000000 0.002750
0.064511 0.000000 0.003692
0.077155 0.000000 0.004798
0.089913 0.000000 0.006080
0.102774 0.000000 0.007545
0.115729 0.000000 0.009203
0.128770 0.000000 0.011064
0.141889 0.000000 0.013134
0.155082 0.000000 0.015422
0.168344 0.000000 0.017937
0.181670 0.000000 0.020686
0.195057 0.000000 0.023676
0.208501 0.000000 0.026916
0.222001 0.000000 0.030411
0.235552 0.000000 0.034171
0.249154 0.000000 0.038200
0.262803 0.000000 0.042444
0.276498 0.000000 0.046698
0.290237 0.000000 0.050964
0.304019 0.000000 0.055242
0.317842 0.000000 0.059531
0.331704 0.000000 0.063831
0.345604 0.000000 0.068142
0.359541 0.000000 0.072462
0.373913 0.000000 0.076917
0.389142 0.000000 0.081636
0.405270 0.000000 0.086632
0.422338 0.000000 0.091919
0.440391 0.000000 0.097509
0.459472 0.000000 0.103417
0.479631 0.000000 0.109658
0.500915 0.000000 0.116245
0.523378 0.000000 0.123197
0.547073 0.000000 0.130528
0.572056 0.000000 0.138257
0.598386 0.000000 0.146402
0.626126 0.000000 0.154982
0.655340 0.000000 0.164017
0.686096 0.000000 0.173527
0.718464 0.000000 0.183535
0.752520 0.000000 0.194064
0.788340 0.000000 0.205137
0.826007 0.000000 0.216781
0.865607 0.000000 0.229021
0.907229 0.000000 0.241885
0.950968 0.000000 0.255402
0.995080 0.000000 0.269035
1.000000 0.000000 0.275767
1.000000 0.000000 0.278501
1.000000 0.000000 0.280110
1.000000 0.000000 0.281512
1.000000 0.000000 0.282971
1.000000 0.000000 0.284561
1.000000 0.000000 0.286306
1.000000 0.000000 0.288221
1.000000 0.000000 0.290323
0.000000 0.000967 0.000274
0.000000 0.001107 0.000059
0.001192 0.001127 0.000000
0.003795 0.001147 0.000000
0.008125 0.001054 0.000000
0.014518 0.000825 0.000000
0.023280 0.000439 0.000000
0.034240 0.000000 0.000119
0.045513 0.000000 0.000800
0.057302 0.000000 0.001599
0.069347 0.000000 0.002537
0.081599 0.000000 0.003631
0.094026 0.000000 0.004893
0.106603 0.000000 0.006335
0.119312 0.000000 0.007967
0.132137 0.000000 0.009799
0.145066 0.000000 0.011840
0.158089 0.000000 0.014098
0.171199 0.000000 0.016582
0.184388 0.000000 0.019299
0.197651 0.000000 0.022258
0.210983 0.000000 0.025466
0.224380 0.000000 0.028930
0.237837 0.000000 0.032657
0.251351 0.000000 0.036655
0.264920 0.000000 0.040921
0.278541 0.000000 0.045237
0.292211 0.000000 0.049560
0.305928 0.000000 0.053889
0.319690 0.000000 0.058226
0.333496 0.000000 0.062570
0.347343 0.000000 0.066921
0.361231 0.000000 0.071280
0.375554 0.000000 0.075771
0.390736 0.000000 0.080527
0.406816 0.000000 0.085559
0.423837 0.000000 0.090880
0.441842 0.000000 0.096505
0.460878 0.000000 0.102447
0.480991 0.000000 0.108720
0.502231 0.000000 0.115340
0.524651 0.000000 0.122323
0.548303 0.000000 0.129685
0.573244 0.000000 0.137444
0.599534 0.000000 0.145618
0.627234 0.000000 0.154226
0.656409 0.000000 0.163289
0.687126 0.000000 0.172826
0.719458 0.000000 0.182859
0.753478 0.000000 0.193413
0.789263 0.000000 0.204511
0.826897 0.000000 0.216178
0.866464 0.000000 0.228440
0.908054 0.000000 0.241326
0.951762 0.000000 0.254865
0.995803 0.000000 0.268506
1.000000 0.000000 0.275252
1.000000 0.000000 0.278019
1.000000 0.000000 0.279662
1.000000 0.000000 0.281099
1.000000 0.000000 0.282590
1.000000 0.000000 0.284209
1.000000 0.000000 0.285981
1.000000 0.000000 0.287921
1.000000 0.000000 0.290046
0.000000 0.002767 0.000783
0.000000 0.002937 0.000580
0.000708 0.003242 0.000000
0.003409 0.003225 0.000000
0.007877 0.003294 0.000000
0.014386 0.003231 0.000000
0.023240 0.003015 0.000000
0.034720 0.002625 0.000000
0.048467 0.002044 0.000000
0.062484 0.001257 0.000000
0.076614 0.000247 0.000000
0.088831 0.000000 0.000957
0.100740 0.000000 0.002288
0.112870 0.000000 0.003770
0.125188 0.000000 0.005421
0.137669 0.000000 0.007257
0.150293 0.000000 0.009291
0.163044 0.000000 0.011534
0.175909 0.000000 0.013996
0.188877 0.000000 0.016687
0.201939 0.000000 0.019616
0.215088 0.000000 0.022790
0.228317 0.000000 0.026219
0.241620 0.000000 0.029909
0.254992 0.000000 0.033868
0.268430 0.000000 0.038103
0.281928 0.000000 0.042553
0.295484 0.000000 0.046997
0.309095 0.000000 0.051436
0.322759 0.000000 0.055873
0.336471 0.000000 0.060308
0.350231 0.000000 0.064743
0.364037 0.000000 0.069179
0.378280 0.000000 0.073744
0.393383 0.000000 0.078571
0.409385 0.000000 0.083673
0.426328 0.000000 0.089062
0.444256 0.000000 0.094753
0.463216 0.000000 0.100759
0.483254 0.000000 0.107095
0.504421 0.000000 0.113775
0.526768 0.000000 0.120816
0.550349 0.000000 0.128235
0.575221 0.000000 0.136049
0.601443 0.000000 0.144276
0.629077 0.000000 0.152935
0.658187 0.000000 0.162046
0.688842 0.000000 0.171631
0.721112 0.000000 0.181710
0.755072 0.000000 0.192308
0.790800 0.000000 0.203449
0.828378 0.000000 0.215157
0.867891 0.000000 0.227459
0.909429 0.000000 0.240383
0.953086 0.000000 0.253958
0.997007 0.000000 0.267616
1.000000 0.000000 0.274386
1.000000 0.000000 0.277207
1.000000 0.000000 0.278911
1.000000 0.000000 0.280405
1.000000 0.000000 0.281950
1.000000 0.000000 0.283619
1.000000 0.000000 0.285436
1.000000 0.000000 0.287419
1.000000 0.000000 0.289582
0.000000 0.005832 0.001651
0.000000 0.006032 0.001433
0.000000 0.006677 0.000353
0.002662 0.006833 0.000000
0.007186 0.006797 0.000000
0.013871 0.006931 0.000000
0.022884 0.006915 0.000000
0.034501 0.006729 0.000000
0.048377 0.006355 0.000000
0.062481 0.005775 0.000000
0.076664 0.004974 0.000000
0.090934 0.003936 0.000000
0.105293 0.002649 0.000000
0.119737 0.001098 0.000000
0.133246 0.000000 0.000716
0.145271 0.000000 0.002692
0.157488 0.000000 0.004823
0.169875 0.000000 0.007134
0.182412 0.000000 0.009640
0.195082 0.000000 0.012357
0.207873 0.000000 0.015297
0.220774 0.000000 0.018472
0.233775 0.000000 0.021891
0.246868 0.000000 0.025565
0.260047 0.000000 0.029502
0.273304 0.000000 0.033709
0.286636 0.000000 0.038196
0.300036 0.000000 0.042884
0.313502 0.000000 0.047539
0.327029 0.000000 0.052167
0.340614 0.000000 0.056774
0.354254 0.000000 0.061364
0.367946 0.000000 0.065941
0.382080 0.000000 0.070637
0.397073 0.000000 0.075590
0.412966 0.000000 0.080814
0.429801 0.000000 0.086321
0.447623 0.000000 0.092125
0.466478 0.000000 0.098239
0.486412 0.000000 0.104678
0.507477 0.000000 0.111458
0.529724 0.000000 0.118595
0.553206 0.000000 0.126105
0.577982 0.000000 0.134006
0.604110 0.000000 0.142317
0.631652 0.000000 0.151056
0.660672 0.000000 0.160244
0.691240 0.000000 0.169903
0.723425 0.000000 0.180053
0.757302 0.000000 0.190718
0.792950 0.000000 0.201923
0.830449 0.000000 0.213693
0.869886 0.000000 0.226054
0.911350 0.000000 0.239035
0.954936 0.000000 0.252664
0.998689 0.000000 0.266347
1.000000 0.000000 0.273155
1.000000 0.000000 0.276056
1.000000 0.000000 0.277846
1.000000 0.000000 0.279423
1.000000 0.000000 0.281046
1.000000 0.000000 0.282785
1.000000 0.000000 0.284667
1.000000 0.000000 0.286709
1.000000 0.000000 0.288927
0.000000 0.010400 0.002944
0.000000 0.010626 0.002706
0.000000 0.011335 0.001726
0.001195 0.012183 0.000000
0.006137 0.012179 0.000000
0.012813 0.012120 0.000000
0.022034 0.012332 0.000000
0.033847 0.012376 0.000000
0.047955 0.012236 0.000000
0.062244 0.011893 0.000000
0.076549 0.011332 0.000000
0.090900 0.010536 0.000000
0.105313 0.009490 0.000000
0.119795 0.008181 0.000000
0.134349 0.006596 0.000000
0.148975 0.004723 0.000000
0.163671 0.002549 0.000000
0.178436 0.000064 0.000000
0.190635 0.000000 0.002656
0.202938 0.000000 0.005536
0.215394 0.000000 0.008601
0.227988 0.000000 0.011870
0.240707 0.000000 0.015358
0.253540 0.000000 0.019081
0.266476 0.000000 0.023050
0.279510 0.000000 0.027277
0.292632 0.000000 0.031771
0.305838 0.000000 0.036543
0.319121 0.000000 0.041572
0.332477 0.000000 0.046566
0.345901 0.000000 0.051494
0.359390 0.000000 0.056367
0.372940 0.000000 0.061195
0.386935 0.000000 0.066122
0.401790 0.000000 0.071295
0.417546 0.000000 0.076726
0.434245 0.000000 0.082429
0.451932 0.000000 0.088418
0.470653 0.000000 0.094707
0.490456 0.000000 0.101312
0.511391 0.000000 0.108249
0.533510 0.000000 0.115534
0.556868 0.000000 0.123185
0.581521 0.000000 0.131219
0.607529 0.000000 0.139656
0.634953 0.000000 0.148515
0.663859 0.000000 0.157816
0.694315 0.000000 0.167582
0.726392 0.000000 0.177834
0.760163 0.000000 0.188596
0.795708 0.000000 0.199893
0.833107 0.000000 0.211750
0.872447 0.000000 0.224195
0.913818 0.000000 0.237255
0.957313 0.000000 0.250960
1.000000 0.000000 0.264679
1.000000 0.000000 0.271541
1.000000 0.000000 0.274549
1.000000 0.000000 0.276456
1.000000 0.000000 0.278143
1.000000 0.000000 0.279867
1.000000 0.000000 0.281700
1.000000 0.000000 0.283667
1.000000 0.000000 0.285788
1.000000 0.000000 0.288077
0.000000 0.016683 0.004723
0.000000 0.016934 0.004464
0.000000 0.017709 0.003497
0.000000 0.019099 0.001010
0.004268 0.019548 0.000000
0.011429 0.019528 0.000000
0.020554 0.019442 0.000000
0.032603 0.019743 0.000000
0.047050 0.019861 0.000000
0.061647 0.019779 0.000000
0.076162 0.019482 0.000000
0.090660 0.018953 0.000000
0.105178 0.018178 0.000000
0.119735 0.017141 0.000000
0.134343 0.015828 0.000000
0.149008 0.014228 0.000000
0.163733 0.012327 0.000000
0.178519 0.010113 0.000000
0.193366 0.007576 0.000000
0.208272 0.004705 0.000000
0.223237 0.001488 0.000000
0.236679 0.000000 0.002049
0.249064 0.000000 0.005770
0.261589 0.000000 0.009679
0.274241 0.000000 0.013797
0.287009 0.000000 0.018143
0.299884 0.000000 0.022731
0.312858 0.000000 0.027574
0.325925 0.000000 0.032686
0.339077 0.000000 0.038076
0.352310 0.000000 0.043626
0.365618 0.000000 0.049031
0.378997 0.000000 0.054319
0.392827 0.000000 0.059658
0.407517 0.000000 0.065212
0.423108 0.000000 0.070996
0.439644 0.000000 0.077027
0.457169 0.000000 0.083319
0.475730 0.000000 0.089891
0.495374 0.000000 0.096758
0.516153 0.000000 0.103940
0.538119 0.000000 0.111452
0.561325 0.000000 0.119316
0.585830 0.000000 0.127548
0.611693 0.000000 0.136171
0.638976 0.000000 0.145203
0.667743 0.000000 0.154668
0.698064 0.000000 0.164586
0.730008 0.000000 0.174982
0.763651 0.000000 0.185880
0.799071 0.000000 0.197304
0.836350 0.000000 0.209281
0.875572 0.000000 0.221839
0.916828 0.000000 0.235006
0.960212 0.000000 0.248812
1.000000 0.000000 0.262582
1.000000 0.000000 0.269520
1.000000 0.000000 0.272668
1.000000 0.000000 0.274721
1.000000 0.000000 0.276548
1.000000 0.000000 0.278401
1.000000 0.000000 0.280352
1.000000 0.000000 0.282428
1.000000 0.000000 0.284646
1.000000 0.000000 0.287026
0.000000 0.024878 0.007043
0.000000 0.025152 0.006763
0.000000 0.025993 0.005777
0.000000 0.027463 0.003525
0.001484 0.029135 0.000000
0.009131 0.029149 0.000000
0.018802 0.029109 0.000000
0.030650 0.028991 0.000000
0.045519 0.029392 0.000000
0.060574 0.029595 0.000000
0.075406 0.029584 0.000000
0.090131 0.029344 0.000000
0.104814 0.028861 0.000000
0.119493 0.028120 0.000000
0.134193 0.027106 0.000000
0.148927 0.025805 0.000000
0.163704 0.024205 0.000000
0.178530 0.022293 0.000000
0.193408 0.020057 0.000000
0.208338 0.017486 0.000000
0.223320 0.014570 0.000000
0.238356 0.011297 0.000000
0.253443 0.007658 0.000000
0.268580 0.003643 0.000000
0.283299 0.000000 0.000755
0.295763 0.000000 0.005401
0.308354 0.000000 0.010239
0.321063 0.000000 0.015290
0.333880 0.000000 0.020574
0.346799 0.000000 0.026106
0.359811 0.000000 0.031902
0.372912 0.000000 0.037974
0.386094 0.000000 0.044167
0.399733 0.000000 0.050288
0.414232 0.000000 0.056538
0.429633 0.000000 0.062947
0.445980 0.000000 0.069539
0.463317 0.000000 0.076340
0.481692 0.000000 0.083372
0.501153 0.000000 0.090659
0.521750 0.000000 0.098223
0.543537 0.000000 0.106086
0.566568 0.000000 0.114270
0.590900 0.000000 0.122798
0.616594 0.000000 0.131692
0.643711 0.000000 0.140975
0.672316 0.000000 0.150672
0.702479 0.000000 0.160805
0.734269 0.000000 0.171401
0.767762 0.000000 0.182484
0.803036 0.000000 0.194082
0.840172 0.000000 0.206220
0.879256 0.000000 0.218929
0.920378 0.000000 0.232238
0.963633 0.000000 0.246177
1.000000 0.000000 0.260019
1.000000 0.000000 0.267061
1.000000 0.000000 0.270385
1.000000 0.000000 0.272622
1.000000 0.000000 0.274622
1.000000 0.000000 0.276634
1.000000 0.000000 0.278730
1.000000 0.000000 0.280938
1.000000 0.000000 0.283277
1.000000 0.000000 0.285766
0.000000 0.035166 0.009955
0.000000 0.035463 0.009655
0.000000 0.036367 0.008637
0.000000 0.037927 0.006478
0.000000 0.040259 0.002129
0.005830 0.041182 0.000000
0.016048 0.041181 0.000000
0.028498 0.041118 0.000000
0.043221 0.040969 0.000000
0.058911 0.041467 0.000000
0.074186 0.041755 0.000000
0.089231 0.041823 0.000000
0.104151 0.041659 0.000000
0.119009 0.041247 0.000000
0.133844 0.040568 0.000000
0.148683 0.039592 0.000000
0.163542 0.038316 0.000000
0.178432 0.036730 0.000000
0.193360 0.034821 0.000000
0.208329 0.032578 0.000000
0.223343 0.029990 0.000000
0.238404 0.027045 0.000000
0.253511 0.023734 0.000000
0.268664 0.020045 0.000000
0.283864 0.015969 0.000000
0.299110 0.011497 0.000000
0.314401 0.006619 0.000000
0.329736 0.001326 0.000000
0.342959 0.000000 0.004319
0.355615 0.000000 0.010166
0.368379 0.000000 0.016229
0.381246 0.000000 0.022529
0.394208 0.000000 0.029082
0.407632 0.000000 0.036104
0.421916 0.000000 0.043715
0.437102 0.000000 0.051332
0.453235 0.000000 0.058960
0.470360 0.000000 0.066658
0.488525 0.000000 0.074475
0.507778 0.000000 0.082454
0.528169 0.000000 0.090631
0.549753 0.000000 0.099042
0.572585 0.000000 0.107717
0.596721 0.000000 0.116687
0.622222 0.000000 0.125981
0.649151 0.000000 0.135627
0.677572 0.000000 0.145654
0.707554 0.000000 0.156090
0.739168 0.000000 0.166963
0.772490 0.000000 0.178300
0.807596 0.000000 0.190132
0.844570 0.000000 0.202487
0.883496 0.000000 0.215396
0.924465 0.000000 0.228890
0.967570 0.000000 0.243002
1.000000 0.000000 0.256943
1.000000 0.000000 0.264126
1.000000 0.000000 0.267669
1.000000 0.000000 0.270131
1.000000 0.000000 0.272342
1.000000 0.000000 0.274546
1.000000 0.000000 0.276817
1.000000 0.000000 0.279183
1.000000 0.000000 0.281667
1.000000 0.000000 0.284287
0.000000 0.047256 0.013509
0.000000 0.047539 0.013189
0.000000 0.048393 0.012133
0.000000 0.049831 0.010002
0.000000 0.051892 0.006033
0.001445 0.054207 0.000000
0.012209 0.054235 0.000000
0.025264 0.054220 0.000000
0.040740 0.054143 0.000000
0.056544 0.053988 0.000000
0.072412 0.054502 0.000000
0.087884 0.054828 0.000000
0.103121 0.054960 0.000000
0.118221 0.054887 0.000000
0.133244 0.054599 0.000000
0.148230 0.054081 0.000000
0.163205 0.053317 0.000000
0.178187 0.052290 0.000000
0.193188 0.050977 0.000000
0.208217 0.049353 0.000000
0.223279 0.047386 0.000000
0.238378 0.045039 0.000000
0.253516 0.042262 0.000000
0.268696 0.038982 0.000000
0.283917 0.035259 0.000000
0.299180 0.031139 0.000000
0.314485 0.026613 0.000000
0.329831 0.021671 0.000000
0.345219 0.016303 0.000000
0.360647 0.010501 0.000000
0.376115 0.004257 0.000000
0.390597 0.000000 0.002422
0.403314 0.000000 0.009353
0.416500 0.000000 0.016710
0.430546 0.000000 0.024764
0.445494 0.000000 0.033603
0.461391 0.000000 0.043225
0.478281 0.000000 0.052710
0.496212 0.000000 0.061990
0.515233 0.000000 0.071190
0.535396 0.000000 0.080405
0.556755 0.000000 0.089706
0.579364 0.000000 0.099156
0.603282 0.000000 0.108804
0.628568 0.000000 0.118697
0.655286 0.000000 0.128875
0.683501 0.000000 0.139377
0.713282 0.000000 0.150240
0.744699 0.000000 0.161497
0.777828 0.000000 0.173182
0.812747 0.000000 0.185331
0.849539 0.000000 0.197975
0.888287 0.000000 0.211148
0.929084 0.000000 0.224885
0.972016 0.000000 0.239218
1.000000 0.000000 0.253295
1.000000 0.000000 0.260666
1.000000 0.000000 0.264479
1.000000 0.000000 0.267215
1.000000 0.000000 0.269680
1.000000 0.000000 0.272115
1.000000 0.000000 0.274595
1.000000 0.000000 0.277150
1.000000 0.000000 0.279804
1.000000 0.000000 0.282578
0.000000 0.059580 0.017751
0.000000 0.059837 0.017413
0.000000 0.060610 0.016314
0.000000 0.061911 0.014175
0.000000 0.063762 0.010405
0.000000 0.066222 0.003797
0.007206 0.067385 0.000000
0.020865 0.067400 0.000000
0.037005 0.067371 0.000000
0.054107 0.067284 0.000000
0.069987 0.067122 0.000000
0.086013 0.067650 0.000000
0.101662 0.068008 0.000000
0.117076 0.068191 0.000000
0.132343 0.068191 0.000000
0.147522 0.068000 0.000000
0.162651 0.067607 0.000000
0.177757 0.067000 0.000000
0.192858 0.066165 0.000000
0.207969 0.065088 0.000000
0.223098 0.063749 0.000000
0.238253 0.062128 0.000000
0.253437 0.060199 0.000000
0.268654 0.057932 0.000000
0.283907 0.055290 0.000000
0.299196 0.052225 0.000000
0.314523 0.048677 0.000000
0.329888 0.044565 0.000000
0.345290 0.039771 0.000000
0.360731 0.034345 0.000000
0.376210 0.028476 0.000000
0.391725 0.022153 0.000000
0.407278 0.015370 0.000000
0.423311 0.007904 0.000000
0.440103 0.000000 0.000536
0.454791 0.000000 0.009869
0.470429 0.000000 0.020045
0.487061 0.000000 0.031178
0.504736 0.000000 0.043289
0.523504 0.000000 0.054992
0.543417 0.000000 0.066157
0.564528 0.000000 0.077028
0.586894 0.000000 0.087772
0.610571 0.000000 0.098508
0.635622 0.000000 0.109328
0.662108 0.000000 0.120305
0.690096 0.000000 0.131503
0.719654 0.000000 0.142976
0.750854 0.000000 0.154773
0.783771 0.000000 0.166939
0.818483 0.000000 0.179517
0.855072 0.000000 0.192548
0.893625 0.000000 0.206070
0.934230 0.000000 0.220124
0.976964 0.000000 0.234742
1.000000 0.000000 0.249005
1.000000 0.000000 0.256623
1.000000 0.000000 0.260769
1.000000 0.000000 0.263835
1.000000 0.000000 0.266604
1.000000 0.000000 0.269313
1.000000 0.000000 0.272040
1.000000 0.000000 0.274817
1.000000 0.000000 0.277671
1.000000 0.000000 0.280627
0.000000 0.072002 0.022726
0.000000 0.072238 0.022369
0.000000 0.072946 0.021226
0.000000 0.074134 0.019060
0.000000 0.075818 0.015391
0.000000 0.078035 0.009310
0.000967 0.080631 0.000000
0.015227 0.080665 0.000000
0.032025 0.080668 0.000000
0.050543 0.080626 0.000000
0.067582 0.080529 0.000000
0.083538 0.080363 0.000000
0.099707 0.080902 0.000000
0.115516 0.081287 0.000000
0.131092 0.081512 0.000000
0.146515 0.081572 0.000000
0.161841 0.081459 0.000000
0.177106 0.081166 0.000000
0.192338 0.080683 0.000000
0.207557 0.080000 0.000000
0.222775 0.079105 0.000000
0.238004 0.077985 0.000000
0.253250 0.076624 0.000000
0.268519 0.075004 0.000000
0.283815 0.073104 0.000000
0.299141 0.070901 0.000000
0.314498 0.068364 0.000000
0.329889 0.065456 0.000000
0.345315 0.062134 0.000000
0.360774 0.058338 0.000000
0.376269 0.053994 0.000000
0.391798 0.048998 0.000000
0.407362 0.043207 0.000000
0.423406 0.036253 0.000000
0.440401 0.028243 0.000000
0.458394 0.019158 0.000000
0.477432 0.008857 0.000000
0.496685 0.000000 0.002799
0.514083 0.000000 0.015627
0.532576 0.000000 0.029624
0.552217 0.000000 0.044744
0.573060 0.000000 0.058891
0.595160 0.000000 0.072069
0.618577 0.000000 0.084700
0.643371 0.000000 0.097045
0.669605 0.000000 0.109278
0.697346 0.000000 0.121530
0.726662 0.000000 0.133900
0.757625 0.000000 0.146470
0.790310 0.000000 0.159309
0.824797 0.000000 0.172477
0.861166 0.000000 0.186029
0.899504 0.000000 0.200015
0.939900 0.000000 0.214483
0.982407 0.000000 0.229468
1.000000 0.000000 0.243984
1.000000 0.000000 0.251927
1.000000 0.000000 0.256481
1.000000 0.000000 0.259943
1.000000 0.000000 0.263074
1.000000 0.000000 0.266109
1.000000 0.000000 0.269126
1.000000 0.000000 0.272164
1.000000 0.000000 0.275252
1.000000 0.000000 0.278417
0.000000 0.084516 0.028475
0.000000 0.084733 0.028100
0.000000 0.085386 0.026912
0.000000 0.086481 0.024707
0.000000 0.088029 0.021082
0.000000 0.090053 0.015316
0.000000 0.092604 0.006091
0.008280 0.094013 0.000000
0.025734 0.094037 0.000000
0.045616 0.094028 0.000000
0.064173 0.093976 0.000000
0.081158 0.093870 0.000000
0.097188 0.093700 0.000000
0.113487 0.094250 0.000000
0.129443 0.094657 0.000000
0.145168 0.094917 0.000000
0.160737 0.095027 0.000000
0.176201 0.094979 0.000000
0.191597 0.094769 0.000000
0.206951 0.094388 0.000000
0.222282 0.093827 0.000000
0.237605 0.093079 0.000000
0.252931 0.092131 0.000000
0.268268 0.090974 0.000000
0.283621 0.089592 0.000000
0.298996 0.087972 0.000000
0.314395 0.086096 0.000000
0.329822 0.083944 0.000000
0.345277 0.081491 0.000000
0.360763 0.078708 0.000000
0.376280 0.075561 0.000000
0.391829 0.072005 0.000000
0.407410 0.067986 0.000000
0.423468 0.063295 0.000000
0.440476 0.057606 0.000000
0.458481 0.050592 0.000000
0.477529 0.041717 0.000000
0.497669 0.030614 0.000000
0.518952 0.017961 0.000000
0.541430 0.003595 0.000000
0.561784 0.000000 0.012494
0.582338 0.000000 0.030037
0.604153 0.000000 0.048589
0.627289 0.000000 0.065167
0.651806 0.000000 0.080336
0.677769 0.000000 0.094715
0.705243 0.000000 0.108661
0.734297 0.000000 0.122408
0.765005 0.000000 0.136120
0.797440 0.000000 0.149923
0.831682 0.000000 0.163915
0.867813 0.000000 0.178180
0.905918 0.000000 0.192788
0.946088 0.000000 0.207804
0.988338 0.000000 0.223264
1.000000 0.000000 0.238123
1.000000 0.000000 0.246489
1.000000 0.000000 0.251542
1.000000 0.000000 0.255481
1.000000 0.000000 0.259043
1.000000 0.000000 0.262463
1.000000 0.000000 0.265822
1.000000 0.000000 0.269164
1.000000 0.000000 0.272523
1.000000 0.000000 0.275932
0.000000 0.097113 0.035041
0.000000 0.097315 0.034648
0.000000 0.097921 0.033415
0.000000 0.098937 0.031161
0.000000 0.100370 0.027544
0.000000 0.102237 0.021969
0.000000 0.104571 0.013414
0.000000 0.107435 0.000043
0.018064 0.107482 0.000000
0.038942 0.107496 0.000000
0.059579 0.107476 0.000000
0.077872 0.107414 0.000000
0.094828 0.107301 0.000000
0.110930 0.107127 0.000000
0.127348 0.107685 0.000000
0.143439 0.108111 0.000000
0.159303 0.108402 0.000000
0.175008 0.108554 0.000000
0.190603 0.108562 0.000000
0.206123 0.108420 0.000000
0.221593 0.108124 0.000000
0.237034 0.107665 0.000000
0.252459 0.107036 0.000000
0.267881 0.106230 0.000000
0.283307 0.105237 0.000000
0.298743 0.104047 0.000000
0.314196 0.102648 0.000000
0.329669 0.101027 0.000000
0.345164 0.099170 0.000000
0.360684 0.097059 0.000000
0.376231 0.094674 0.000000
0.391806 0.091992 0.000000
0.407409 0.088985 0.000000
0.423487 0.085517 0.000000
0.440514 0.081388 0.000000
0.458536 0.076434 0.000000
0.477598 0.070428 0.000000
0.497751 0.063035 0.000000
0.519046 0.053718 0.000000
0.541534 0.041513 0.000000
