montaj_assets/luts/montaj-vivid-v1-neutral.cube
TITLE "montaj-vivid-v1-neutral"
LUT_3D_SIZE 5
DOMAIN_MIN 0.0 0.0 0.0
DOMAIN_MAX 1.0 1.0 1.0
0.000000 0.000000 0.000000
0.140823 0.000000 0.013528
0.358977 0.000000 0.072844
0.718133 0.000000 0.183758
1.000000 0.000000 0.291052
0.000000 0.135352 0.057510
0.152642 0.147883 0.000000
0.407006 0.142278 0.000000
0.800452 0.000000 0.044389
1.000000 0.000000 0.263697
0.000000 0.347410 0.182850
0.000000 0.370739 0.070092
0.383963 0.373902 0.000000
0.806544 0.371093 0.000000
1.000000 0.000000 0.040907
0.000000 0.696531 0.389201
0.000000 0.709871 0.355607
0.141345 0.747634 0.000000
0.764795 0.746005 0.000000
1.000000 0.478071 0.000000
0.000000 0.958572 0.544084
0.000000 0.962700 0.533470
0.000000 0.975200 0.494101
0.000000 1.000000 0.205743
1.000000 0.999298 0.000000
0.000000 0.003934 0.066844
0.144923 0.000000 0.119037
0.361563 0.000000 0.166426
0.719716 0.000000 0.253320
1.000000 0.000000 0.321222
0.000000 0.138507 0.133615
0.148937 0.148937 0.148937
0.426165 0.122698 0.160651
0.800349 0.000000 0.209148
1.000000 0.000000 0.299608
0.000000 0.349068 0.235241
0.000000 0.370944 0.196759
0.384951 0.375992 0.120343
0.840535 0.346444 0.090476
1.000000 0.000000 0.167126
0.000000 0.697503 0.423019
0.000000 0.710618 0.397528
0.000000 0.751974 0.167395
0.766852 0.748014 0.000000
1.000000 0.464178 0.000000
0.000000 0.958780 0.556549
0.000000 0.962889 0.546636
0.000000 0.975324 0.509999
0.000000 1.000000 0.260901
1.000000 0.999897 0.000000
0.000000 0.023719 0.202584
0.158493 0.000000 0.283459
0.367645 0.000000 0.312920
0.724116 0.000000 0.390291
1.000000 0.000000 0.396337
0.000000 0.157701 0.264504
0.138140 0.158379 0.352232
0.422403 0.119484 0.366633
0.799948 0.000000 0.402781
1.000000 0.000000 0.385228
0.000000 0.354080 0.343738
0.000000 0.372149 0.361350
0.376130 0.376130 0.376130
0.841517 0.342659 0.396982
1.000000 0.000000 0.323781
0.000000 0.700427 0.508597
0.000000 0.712893 0.498616
0.000000 0.751443 0.421658
0.765473 0.750049 0.344170
1.000000 0.434592 0.190548
0.000000 0.959409 0.591930
0.000000 0.963459 0.583853
0.000000 0.975702 0.554209
0.000000 1.000000 0.375443
1.000000 1.000000 0.000000
0.000000 0.087713 0.426056
0.146123 0.000000 0.566051
0.392461 0.000000 0.582158
0.734319 0.000000 0.632117
1.000000 0.000000 0.552705
0.000000 0.195365 0.478887
0.028422 0.164608 0.656739
0.425524 0.116554 0.680441
0.798041 0.000000 0.687587
1.000000 0.000000 0.555035
0.000000 0.385466 0.559133
0.000000 0.396139 0.617471
0.362557 0.392707 0.716554
0.834054 0.338883 0.736698
1.000000 0.000000 0.551745
0.000000 0.708987 0.689672
0.000000 0.719754 0.700167
0.000000 0.751216 0.730833
0.750167 0.750167 0.750167
1.000000 0.429021 0.521104
0.000000 0.961254 0.681665
0.000000 0.965137 0.677455
0.000000 0.976840 0.661849
0.000000 1.000000 0.575551
1.000000 1.000000 0.399695
0.000000 0.177513 0.728754
0.000000 0.132215 0.836629
0.278900 0.000000 0.932089
0.574055 0.000000 0.915118
1.000000 0.000000 0.925444
0.000000 0.228859 0.743724
0.000000 0.207651 0.830341
0.242255 0.014553 1.000000
0.593292 0.000000 0.974096
1.000000 0.000000 0.943722
0.000000 0.339659 0.773412
0.000000 0.336554 0.826601
0.104829 0.290162 1.000000
0.589238 0.233420 1.000000
1.000000 0.000000 0.996086
0.000000 0.540185 0.822359
0.000000 0.543542 0.844873
0.000000 0.550243 0.924755
0.481372 0.532559 1.000000
1.000000 0.418347 1.000000
0.000000 0.968938 0.943051
0.000000 0.972214 0.946244
0.000000 0.981961 0.955745
0.000000 1.000000 0.982718
1.000000 1.000000 1.000000
