montaj_assets/luts/montaj-vivid-v1.cube
TITLE "montaj-vivid-v1"
LUT_3D_SIZE 9
DOMAIN_MIN 0.0 0.0 0.0
DOMAIN_MAX 1.0 1.0 1.0
0.000000 0.000000 0.000000
0.037641 0.000000 0.002244
0.140823 0.000000 0.013528
0.248419 0.000000 0.038694
0.358977 0.000000 0.072844
0.500476 0.000000 0.116542
0.718133 0.000000 0.183758
1.000000 0.000000 0.275938
1.000000 0.000000 0.290416
0.000000 0.035166 0.009955
0.043221 0.040969 0.000000
0.163542 0.038316 0.000000
0.283864 0.015969 0.000000
0.394208 0.000000 0.029082
0.528169 0.000000 0.090631
0.739168 0.000000 0.166963
1.000000 0.000000 0.264126
1.000000 0.000000 0.284287
0.000000 0.135352 0.057510
0.000000 0.146387 0.012839
0.152642 0.147883 0.000000
0.281451 0.149341 0.000000
0.407006 0.142278 0.000000
0.565468 0.115573 0.000000
0.800452 0.000000 0.044389
1.000000 0.000000 0.214655
1.000000 0.000000 0.262768
0.000000 0.239941 0.119329
0.000000 0.247368 0.098804
0.112129 0.260070 0.000000
0.266732 0.259357 0.000000
0.401076 0.262162 0.000000
0.563783 0.258032 0.000000
0.808546 0.230519 0.000000
1.000000 0.129460 0.098079
1.000000 0.101116 0.237149
0.000000 0.347410 0.182850
0.000000 0.353079 0.169187
0.000000 0.370739 0.070092
0.235210 0.374849 0.000000
0.383963 0.373902 0.000000
0.556278 0.377691 0.000000
0.806450 0.371046 0.000000
1.000000 0.406883 0.318297
1.000000 0.303248 0.307869
0.000000 0.484956 0.264147
0.000000 0.489357 0.254243
0.000000 0.502783 0.209379
0.111433 0.521692 0.000000
0.344981 0.521755 0.000000
0.533843 0.520346 0.000000
0.797818 0.525645 0.000000
1.000000 0.510558 0.312570
1.000000 0.437741 0.384484
0.000000 0.689122 0.384822
0.000000 0.692092 0.377555
0.000000 0.701033 0.350862
0.000000 0.716151 0.280125
0.137982 0.733888 0.000000
0.457303 0.729404 0.000000
0.738556 0.720367 0.000000
1.000000 0.682111 0.000000
1.000000 0.540457 0.395309
0.000000 0.872639 0.493292
0.000000 0.874470 0.488629
0.000000 0.879982 0.473170
0.000000 0.889259 0.441368
0.000000 0.902505 0.377663
0.000000 0.925477 0.094657
0.558727 0.921225 0.000000
0.933066 0.910419 0.000000
1.000000 0.708814 0.172746
0.000000 0.915038 0.518353
0.000000 0.916025 0.515908
0.000000 0.918990 0.508195
0.000000 0.923952 0.493947
0.000000 0.930952 0.470517
0.000000 0.942703 0.419447
0.000000 0.967347 0.194544
0.573919 0.967421 0.000000
0.980636 0.956899 0.000000
0.000000 0.000652 0.012054
0.039560 0.000000 0.028361
0.142047 0.000000 0.049741
0.249290 0.000000 0.075165
0.359654 0.000000 0.103393
0.501006 0.000000 0.141716
0.718534 0.000000 0.203547
1.000000 0.000000 0.290524
1.000000 0.000000 0.298269
0.000000 0.036581 0.034401
0.041468 0.041468 0.041468
0.172605 0.029814 0.047009
0.293165 0.000000 0.052520
0.394314 0.000000 0.083756
0.528440 0.000000 0.125177
0.739464 0.000000 0.190345
1.000000 0.000000 0.279997
1.000000 0.000000 0.292483
0.000000 0.136136 0.082292
0.000000 0.146484 0.064089
0.153109 0.148872 0.028874
0.293492 0.143408 0.024562
0.425747 0.124734 0.011983
0.587207 0.071391 0.000000
0.800428 0.000000 0.109596
1.000000 0.000000 0.236596
1.000000 0.000000 0.272224
0.000000 0.240480 0.137718
0.000000 0.247725 0.123929
0.077010 0.265108 0.000000
0.267872 0.260471 0.000000
0.410512 0.258991 0.000000
0.577093 0.249213 0.000000
0.823029 0.211430 0.000000
1.000000 0.111232 0.129437
1.000000 0.103867 0.249232
0.000000 0.347824 0.197390
0.000000 0.353418 0.186400
0.000000 0.370780 0.115365
0.223477 0.377881 0.000000
0.384838 0.374757 0.000000
0.563042 0.375606 0.000000
0.816522 0.364251 0.000000
1.000000 0.407154 0.330944
1.000000 0.304777 0.316636
0.000000 0.485277 0.275661
0.000000 0.489646 0.266919
0.000000 0.502956 0.227891
0.046196 0.525036 0.000000
0.337037 0.523994 0.000000
0.534515 0.521003 0.000000
0.803354 0.523719 0.000000
1.000000 0.510486 0.325223
1.000000 0.437790 0.389292
0.000000 0.689293 0.393480
0.000000 0.692248 0.386670
0.000000 0.701141 0.361731
0.000000 0.716169 0.296626
0.081860 0.736282 0.000000
0.450328 0.731056 0.000000
0.738979 0.720780 0.000000
1.000000 0.679976 0.000000
1.000000 0.540465 0.400017
0.000000 0.872728 0.498934
0.000000 0.874554 0.494424
0.000000 0.880053 0.479481
0.000000 0.889305 0.448808
0.000000 0.902512 0.387768
0.000000 0.925401 0.141005
0.553764 0.922330 0.000000
0.933337 0.910684 0.000000
1.000000 0.711656 0.250634
0.000000 0.915088 0.521368
0.000000 0.916073 0.518964
0.000000 0.919035 0.511382
0.000000 0.923991 0.497383
0.000000 0.930982 0.474380
0.000000 0.942716 0.424360
0.000000 0.967317 0.209160
0.571138 0.968022 0.000000
0.980783 0.957042 0.000000
0.000000 0.003934 0.066844
0.045988 0.000000 0.105101
0.144923 0.000000 0.119037
0.251636 0.000000 0.141996
0.361563 0.000000 0.166426
0.502541 0.000000 0.199304
0.719716 0.000000 0.253320
1.000000 0.000000 0.329905
1.000000 0.000000 0.320498
0.000000 0.045614 0.096134
0.036415 0.045934 0.137633
0.170826 0.028536 0.144445
0.291822 0.000000 0.155142
0.394580 0.000000 0.168686
0.529217 0.000000 0.195804
0.740330 0.000000 0.246894
1.000000 0.000000 0.322324
1.000000 0.000000 0.315600
0.000000 0.138507 0.133615
0.000000 0.147054 0.141945
0.148937 0.148937 0.148937
0.293781 0.141996 0.155703
0.426165 0.122698 0.160651
0.590949 0.057704 0.163105
0.800349 0.000000 0.209148
1.000000 0.000000 0.291597
1.000000 0.000000 0.298538
0.000000 0.242105 0.181981
0.000000 0.248834 0.179176
0.054392 0.266394 0.149290
0.266023 0.261030 0.144162
0.415328 0.256671 0.147964
0.588465 0.240297 0.146761
0.844538 0.176530 0.133090
1.000000 0.124639 0.232401
1.000000 0.111893 0.281851
0.000000 0.349068 0.235241
0.000000 0.354443 0.229806
0.000000 0.370944 0.196759
0.201723 0.382125 0.126920
0.384951 0.375992 0.120343
0.574765 0.371401 0.116053
0.840830 0.346041 0.087930
1.000000 0.408025 0.365786
1.000000 0.309293 0.341079
0.000000 0.486244 0.307240
0.000000 0.490515 0.301286
0.000000 0.503487 0.275100
0.000000 0.526216 0.165518
0.309942 0.530558 0.045800
0.536522 0.522964 0.000000
0.821264 0.516551 0.000000
1.000000 0.510265 0.360112
1.000000 0.437935 0.403307
0.000000 0.689802 0.418127
0.000000 0.692714 0.412525
0.000000 0.701468 0.392119
0.000000 0.716227 0.340465
0.000000 0.737797 0.163487
0.426087 0.736349 0.000000
0.740247 0.722019 0.000000
1.000000 0.682873 0.274391
1.000000 0.540488 0.413760
0.000000 0.872994 0.515386
0.000000 0.874807 0.511304
0.000000 0.880266 0.497800
0.000000 0.889445 0.470231
0.000000 0.902534 0.416255
0.000000 0.925177 0.228547
0.537681 0.925756 0.000000
0.934149 0.911477 0.000000
1.000000 0.724273 0.428300
0.000000 0.915238 0.530283
0.000000 0.916220 0.527998
0.000000 0.919170 0.520795
0.000000 0.924108 0.507510
0.000000 0.931071 0.485732
0.000000 0.942755 0.438680
0.000000 0.967227 0.247332
0.562458 0.969856 0.000000
0.981225 0.957474 0.000000
0.000000 0.011253 0.133792
0.045111 0.000000 0.189313
0.153285 0.000000 0.199084
0.254771 0.000000 0.214662
0.364379 0.000000 0.238140
0.504924 0.000000 0.268897
0.721611 0.000000 0.318341
1.000000 0.000000 0.385461
1.000000 0.000000 0.353978
0.000000 0.056363 0.160424
0.019920 0.048310 0.229339
0.173026 0.028408 0.239552
0.289595 0.000000 0.244976
0.394868 0.000000 0.253419
0.530396 0.000000 0.274850
0.741715 0.000000 0.318026
1.000000 0.000000 0.381116
1.000000 0.000000 0.350231
0.000000 0.147907 0.197998
0.000000 0.154286 0.220624
0.146429 0.154363 0.254099
0.290803 0.141270 0.258391
0.424679 0.121405 0.268516
0.590220 0.054032 0.279244
0.800199 0.000000 0.307487
1.000000 0.000000 0.362896
1.000000 0.000000 0.337182
0.000000 0.244830 0.237250
0.000000 0.250785 0.243054
0.028070 0.266616 0.258796
0.260991 0.260991 0.260991
0.415049 0.255369 0.268163
0.588752 0.238422 0.275780
0.844347 0.174322 0.282274
1.000000 0.145389 0.334248
1.000000 0.124628 0.327689
0.000000 0.351150 0.286316
0.000000 0.356181 0.286334
0.000000 0.371346 0.280555
0.190173 0.382792 0.262173
0.381700 0.376249 0.258507
0.574853 0.370501 0.265671
0.841923 0.343890 0.267563
1.000000 0.408697 0.415227
1.000000 0.316573 0.376891
0.000000 0.487860 0.352680
0.000000 0.491974 0.349966
0.000000 0.504401 0.337235
0.000000 0.525841 0.288313
0.299409 0.531706 0.245610
0.534172 0.523218 0.237549
0.826043 0.513984 0.235389
1.000000 0.509875 0.410719
1.000000 0.438170 0.425438
0.000000 0.690648 0.455563
0.000000 0.693488 0.451569
0.000000 0.702014 0.437011
0.000000 0.716335 0.400907
0.000000 0.737101 0.299447
0.369325 0.746561 0.000000
0.742001 0.723733 0.000000
1.000000 0.690160 0.433389
1.000000 0.540521 0.435523
0.000000 0.873439 0.541388
0.000000 0.875231 0.537934
0.000000 0.880622 0.526525
0.000000 0.889681 0.503365
0.000000 0.902578 0.458856
0.000000 0.924816 0.321433
0.506040 0.931889 0.000000
0.935500 0.912797 0.000000
1.000000 0.730228 0.516540
0.000000 0.915489 0.544724
0.000000 0.916464 0.542625
0.000000 0.919397 0.536011
0.000000 0.924304 0.523829
0.000000 0.931221 0.503925
0.000000 0.942821 0.461298
0.000000 0.967081 0.298961
0.546755 0.973021 0.000000
0.981959 0.958192 0.000000
0.000000 0.023719 0.202584
0.033515 0.000000 0.277277
0.158493 0.000000 0.283459
0.263911 0.000000 0.296525
0.367645 0.000000 0.312920
0.507920 0.000000 0.342952
0.724116 0.000000 0.390291
1.000000 0.000000 0.450164
1.000000 0.000000 0.395348
0.000000 0.069294 0.226337
0.000000 0.053329 0.310155
0.170769 0.026121 0.333827
0.293042 0.000000 0.337429
0.394971 0.000000 0.336708
0.531818 0.000000 0.355671
0.743531 0.000000 0.394837
1.000000 0.000000 0.448715
1.000000 0.000000 0.392790
0.000000 0.157701 0.264504
0.000000 0.161750 0.294826
0.138140 0.158379 0.352232
0.292197 0.144625 0.359797
0.422403 0.119484 0.366633
0.589088 0.048491 0.382696
0.799948 0.000000 0.402781
1.000000 0.000000 0.440844
1.000000 0.000000 0.383757
0.000000 0.254551 0.303217
0.000000 0.259669 0.315273
0.000000 0.272757 0.362222
0.259325 0.266884 0.371846
0.411292 0.254788 0.374942
0.586796 0.237510 0.386542
0.843443 0.172252 0.401530
1.000000 0.171949 0.430630
1.000000 0.141381 0.380521
0.000000 0.354080 0.343738
0.000000 0.358670 0.348211
0.000000 0.372149 0.361350
0.177222 0.382899 0.374278
0.376130 0.376130 0.376130
0.574331 0.369147 0.385334
0.842181 0.341653 0.396295
1.000000 0.408596 0.473462
1.000000 0.326225 0.419531
0.000000 0.490131 0.406437
0.000000 0.494034 0.406745
0.000000 0.505741 0.405597
0.000000 0.525500 0.392820
0.288193 0.532238 0.377738
0.530470 0.523399 0.372069
0.826471 0.512574 0.381106
1.000000 0.509283 0.471107
1.000000 0.438488 0.454260
0.000000 0.691824 0.502179
0.000000 0.694567 0.499891
0.000000 0.702783 0.491327
0.000000 0.716511 0.469673
0.000000 0.736197 0.412646
0.230662 0.762306 0.114385
0.744323 0.726002 0.000000
1.000000 0.689658 0.492346
1.000000 0.540561 0.463962
0.000000 0.874065 0.575268
0.000000 0.875827 0.572556
0.000000 0.881126 0.563595
0.000000 0.890019 0.545444
0.000000 0.902651 0.511031
0.000000 0.924334 0.412843
0.447001 0.941544 0.000000
0.936936 0.914200 0.000000
1.000000 0.726031 0.529938
0.000000 0.915840 0.564144
0.000000 0.916808 0.562281
0.000000 0.919716 0.556414
0.000000 0.924580 0.545622
0.000000 0.931433 0.528043
0.000000 0.942916 0.490743
0.000000 0.966881 0.356955
0.521689 0.977701 0.000000
0.982987 0.959196 0.000000
0.000000 0.047536 0.290626
0.000322 0.000000 0.390610
0.159521 0.000000 0.393702
0.272443 0.000000 0.403455
0.379427 0.000000 0.417631
0.512106 0.000000 0.438676
0.727902 0.000000 0.484930
1.000000 0.000000 0.537781
1.000000 0.000000 0.454220
0.000000 0.088115 0.311135
0.000000 0.074075 0.380085
0.160759 0.019827 0.453035
0.293698 0.000000 0.451673
0.402709 0.000000 0.448814
0.533649 0.000000 0.457430
0.746243 0.000000 0.494166
1.000000 0.000000 0.539316
1.000000 0.000000 0.453037
0.000000 0.171374 0.349160
0.000000 0.172841 0.383714
0.116952 0.161953 0.473471
0.289436 0.147140 0.483329
0.426493 0.119800 0.493065
0.586945 0.038030 0.504715
0.799433 0.000000 0.518566
1.000000 0.000000 0.541551
1.000000 0.000000 0.448515
0.000000 0.266843 0.388394
0.000000 0.270758 0.405729
0.000000 0.278594 0.473415
0.251895 0.272741 0.500610
0.412004 0.260346 0.507249
0.583355 0.235904 0.514330
0.841838 0.168708 0.536764
1.000000 0.211133 0.542090
1.000000 0.167010 0.450537
0.000000 0.366537 0.428127
0.000000 0.370552 0.436949
0.000000 0.381840 0.466689
0.160198 0.390883 0.510317
0.374139 0.383725 0.518535
0.569387 0.368423 0.522271
0.840276 0.339581 0.539505
1.000000 0.408282 0.554297
1.000000 0.340693 0.477156
0.000000 0.493905 0.480028
0.000000 0.497486 0.483518
0.000000 0.508094 0.493858
0.000000 0.525356 0.510683
0.272439 0.532348 0.521201
0.523492 0.523492 0.523492
0.827403 0.508586 0.534783
1.000000 0.508181 0.554581
1.000000 0.438983 0.497577
0.000000 0.693751 0.568886
0.000000 0.696340 0.568605
0.000000 0.704065 0.566890
0.000000 0.716862 0.560449
0.000000 0.734871 0.540043
0.189228 0.761511 0.454654
0.741027 0.726869 0.369547
1.000000 0.688662 0.575000
1.000000 0.540605 0.506883
0.000000 0.875108 0.626168
0.000000 0.876822 0.624438
0.000000 0.881972 0.618671
0.000000 0.890597 0.606861
0.000000 0.902802 0.584439
0.000000 0.923596 0.523411
0.256822 0.961302 0.000000
0.939210 0.916422 0.000000
1.000000 0.726126 0.566445
0.000000 0.916424 0.594479
0.000000 0.917378 0.592958
0.000000 0.920246 0.588167
0.000000 0.925040 0.579357
0.000000 0.931788 0.565037
0.000000 0.943080 0.534927
0.000000 0.966567 0.433019
0.469489 0.986186 0.000000
0.984372 0.960549 0.000000
0.000000 0.087713 0.426056
0.000000 0.063279 0.491583
0.146123 0.000000 0.566051
0.278015 0.000000 0.571662
0.392461 0.000000 0.582158
0.529938 0.000000 0.599955
0.734319 0.000000 0.632117
1.000000 0.000000 0.675470
1.000000 0.000000 0.550852
0.000000 0.120445 0.442780
0.000000 0.108749 0.496962
0.122414 0.002130 0.636026
0.287540 0.000000 0.623527
0.408981 0.000000 0.619416
0.547850 0.000000 0.624947
0.750710 0.000000 0.646385
1.000000 0.000000 0.680362
1.000000 0.000000 0.551392
0.000000 0.195365 0.478887
0.000000 0.194075 0.514161
0.028422 0.164608 0.656739
0.275416 0.147432 0.668512
0.425524 0.116554 0.680441
0.594738 0.016258 0.695815
0.798041 0.000000 0.687587
1.000000 0.000000 0.693532
1.000000 0.025901 0.552456
0.000000 0.287019 0.518937
0.000000 0.289146 0.540538
0.000000 0.290299 0.620964
0.227205 0.279234 0.689350
0.405823 0.266007 0.698926
0.587824 0.239522 0.710296
0.838218 0.161105 0.726791
1.000000 0.274790 0.687976
1.000000 0.212861 0.555198
0.000000 0.385466 0.559133
0.000000 0.388476 0.572372
0.000000 0.396139 0.617471
0.098023 0.400541 0.705802
0.362557 0.392707 0.716554
0.569749 0.377037 0.725341
0.836390 0.334225 0.738178
1.000000 0.407072 0.684306
1.000000 0.363192 0.564245
0.000000 0.513018 0.609966
0.000000 0.516092 0.617165
0.000000 0.524973 0.640175
0.000000 0.538291 0.685149
0.244423 0.544166 0.730449
0.517502 0.532971 0.743265
0.827829 0.492185 0.752258
1.000000 0.505490 0.688623
1.000000 0.439863 0.573068
0.000000 0.697557 0.678531
0.000000 0.699859 0.680774
0.000000 0.706678 0.687421
0.000000 0.717771 0.698234
0.000000 0.732783 0.712866
0.000000 0.757837 0.737287
0.750167 0.750167 0.750167
1.000000 0.679807 0.704451
1.000000 0.540618 0.582118
0.000000 0.877233 0.714627
0.000000 0.878855 0.714308
0.000000 0.883718 0.713065
0.000000 0.891826 0.709932
0.000000 0.903217 0.702840
0.000000 0.922323 0.681259
0.000000 0.964613 0.547654
0.937663 0.918135 0.382181
1.000000 0.726186 0.632536
0.000000 0.917605 0.650024
0.000000 0.918534 0.649057
0.000000 0.921322 0.645996
0.000000 0.925978 0.640328
0.000000 0.932522 0.631060
0.000000 0.943439 0.611568
0.000000 0.965991 0.548469
0.347450 1.000000 0.228797
0.986854 0.962974 0.000000
0.000000 0.148040 0.629407
0.000000 0.134591 0.674734
0.060291 0.000000 0.827404
0.266018 0.000000 0.829357
0.399315 0.000000 0.835267
0.548026 0.000000 0.847868
0.753599 0.000000 0.866243
1.000000 0.000000 0.880486
1.000000 0.000000 0.699747
0.000000 0.173390 0.642422
0.000000 0.164116 0.683594
0.000000 0.066164 0.849887
0.259302 0.000000 0.879354
0.406083 0.000000 0.875024
0.560051 0.000000 0.877430
0.765532 0.000000 0.883678
1.000000 0.000000 0.888565
1.000000 0.030788 0.701143
0.000000 0.237241 0.674342
0.000000 0.233905 0.706522
0.000000 0.206613 0.826842
0.222887 0.140059 0.943440
0.408168 0.100832 0.956496
0.590092 0.000000 0.964665
0.799047 0.000000 0.934918
1.000000 0.164797 0.891873
1.000000 0.156697 0.700320
0.000000 0.321570 0.713840
0.000000 0.321616 0.737184
0.000000 0.316463 0.818796
0.137028 0.284548 0.965399
0.378239 0.268463 0.975169
0.576785 0.237046 0.982716
0.827289 0.140737 0.989580
1.000000 0.321837 0.876046
1.000000 0.286125 0.693446
0.000000 0.414505 0.752309
0.000000 0.415812 0.768369
0.000000 0.417811 0.821858
0.000000 0.410977 0.937779
0.317636 0.396114 0.985300
0.545382 0.375854 0.989783
0.812764 0.317583 0.998349
1.000000 0.402114 0.883392
1.000000 0.376083 0.689857
0.000000 0.528197 0.787292
0.000000 0.529924 0.797126
0.000000 0.534481 0.828694
0.000000 0.539429 0.890411
0.121339 0.536973 0.990997
0.471028 0.519310 1.000000
0.773234 0.476045 1.000000
1.000000 0.497985 0.894707
1.000000 0.441162 0.696532
0.000000 0.681554 0.818372
0.000000 0.683036 0.822776
0.000000 0.687336 0.836461
0.000000 0.693980 0.861167
0.000000 0.701965 0.901268
0.000000 0.709895 0.992859
0.647331 0.672897 1.000000
1.000000 0.644199 0.917452
1.000000 0.540335 0.706145
0.000000 0.881605 0.857926
0.000000 0.883055 0.859339
0.000000 0.887387 0.863562
0.000000 0.894547 0.870541
0.000000 0.904449 0.880193
0.000000 0.920531 0.895868
0.000000 0.952462 0.926992
0.951064 0.951065 0.951064
1.000000 0.719739 0.740478
0.000000 0.920012 0.745916
0.000000 0.920890 0.745733
0.000000 0.923524 0.745105
0.000000 0.927915 0.743784
0.000000 0.934065 0.741303
0.000000 0.944267 0.735306
0.000000 0.965043 0.713442
0.284069 1.000000 0.609807
0.986050 0.965060 0.373246
0.000000 0.177513 0.728754
0.000000 0.170300 0.752841
0.000000 0.132215 0.836629
0.126981 0.000000 0.940454
0.278900 0.000000 0.932089
0.410214 0.000000 0.923255
0.574055 0.000000 0.915118
0.786921 0.000000 0.913445
1.000000 0.204526 0.888184
0.000000 0.191546 0.732906
0.000000 0.185523 0.755753
0.000000 0.155042 0.834608
0.089552 0.000000 0.970613
0.272725 0.000000 0.957912
0.411819 0.000000 0.944035
0.579214 0.000000 0.929865
0.792900 0.000000 0.922446
1.000000 0.228749 0.885253
0.000000 0.228859 0.743724
0.000000 0.225181 0.763475
0.000000 0.207651 0.830341
0.000000 0.124290 0.981083
0.242255 0.014553 1.000000
0.412687 0.000000 1.000000
0.593292 0.000000 0.974096
0.810319 0.000000 0.949273
1.000000 0.286478 0.876992
0.000000 0.280506 0.758007
0.000000 0.278813 0.774025
0.000000 0.270702 0.827039
0.000000 0.239826 0.938797
0.197583 0.185817 1.000000
0.395132 0.156206 1.000000
0.606610 0.063847 1.000000
0.837570 0.000000 0.993423
1.000000 0.333222 0.876973
0.000000 0.339659 0.773412
0.000000 0.339235 0.785951
0.000000 0.336554 0.826601
0.000000 0.325346 0.907626
0.104829 0.290162 1.000000
0.362385 0.272414 1.000000
0.589238 0.233420 1.000000
0.860698 0.099514 1.000000
1.000000 0.379539 0.881134
0.000000 0.418498 0.792885
0.000000 0.418915 0.801922
0.000000 0.419597 0.830629
0.000000 0.418343 0.884975
0.000000 0.408610 0.980873
0.296974 0.390758 1.000000
0.557672 0.365492 1.000000
0.839652 0.304895 1.000000
1.000000 0.441816 0.887737
0.000000 0.539851 0.821867
0.000000 0.540699 0.827292
0.000000 0.543066 0.844157
0.000000 0.546351 0.874521
0.000000 0.549203 0.923070
0.000000 0.546821 1.000000
0.480736 0.530174 1.000000
0.780572 0.500466 1.000000
1.000000 0.538537 0.900347
0.000000 0.702728 0.849848
0.000000 0.703498 0.852219
0.000000 0.705768 0.859463
0.000000 0.709420 0.872015
0.000000 0.714233 0.890765
0.000000 0.721299 0.925692
0.200820 0.727058 1.000000
0.674950 0.697833 1.000000
1.000000 0.697672 0.927434
0.000000 0.924959 0.900184
0.000000 0.925744 0.900949
0.000000 0.928094 0.903240
0.000000 0.931995 0.907042
0.000000 0.937423 0.912333
0.000000 0.946318 0.921003
0.000000 0.963908 0.938148
0.000000 0.998276 0.971647
1.000000 1.000000 1.000000
