montaj_assets/luts/montaj-vivid-v1-neutral.cube
TITLE "montaj-vivid-v1-neutral"
LUT_3D_SIZE 9
DOMAIN_MIN 0.0 0.0 0.0
DOMAIN_MAX 1.0 1.0 1.0
0.000000 0.000000 0.000000
0.037641 0.000000 0.002244
0.140823 0.000000 0.013528
0.248419 0.000000 0.038694
0.358977 0.000000 0.072844
0.500476 0.000000 0.116542
0.718133 0.000000 0.183758
1.000000 0.000000 0.276099
1.000000 0.000000 0.291052
0.000000 0.035166 0.009955
0.043221 0.040969 0.000000
0.163542 0.038316 0.000000
0.283864 0.015969 0.000000
0.394208 0.000000 0.029082
0.528169 0.000000 0.090631
0.739168 0.000000 0.166963
1.000000 0.000000 0.264364
1.000000 0.000000 0.284996
0.000000 0.135352 0.057510
0.000000 0.146387 0.012839
0.152642 0.147883 0.000000
0.281451 0.149341 0.000000
0.407006 0.142278 0.000000
0.565468 0.115573 0.000000
0.800452 0.000000 0.044389
1.000000 0.000000 0.215151
1.000000 0.000000 0.263697
0.000000 0.239941 0.119329
0.000000 0.247368 0.098804
0.112129 0.260070 0.000000
0.266732 0.259357 0.000000
0.401076 0.262162 0.000000
0.563783 0.258032 0.000000
0.808546 0.230519 0.000000
1.000000 0.067981 0.000000
1.000000 0.000000 0.213438
0.000000 0.347410 0.182850
0.000000 0.353079 0.169187
0.000000 0.370739 0.070092
0.235210 0.374849 0.000000
0.383963 0.373902 0.000000
0.556278 0.377691 0.000000
0.806544 0.371093 0.000000
1.000000 0.305989 0.000000
1.000000 0.000000 0.040907
0.000000 0.484956 0.264147
0.000000 0.489357 0.254243
0.000000 0.502783 0.209379
0.111433 0.521692 0.000000
0.344981 0.521755 0.000000
0.534002 0.520501 0.000000
0.797818 0.525645 0.000000
1.000000 0.475716 0.000000
1.000000 0.277470 0.000000
0.000000 0.696531 0.389201
0.000000 0.699847 0.382045
0.000000 0.709871 0.355607
0.000000 0.726943 0.284815
0.141345 0.747634 0.000000
0.469315 0.747796 0.000000
0.764795 0.746005 0.000000
1.000000 0.683308 0.000000
1.000000 0.478071 0.000000
0.000000 0.914270 0.517899
0.000000 0.916183 0.513026
0.000000 0.921943 0.496873
0.000000 0.931636 0.463644
0.000000 0.945476 0.397080
0.000000 0.969479 0.101373
0.586269 0.965036 0.000000
0.974467 0.950870 0.000000
1.000000 0.707987 0.000000
0.000000 0.958572 0.544084
0.000000 0.959602 0.541529
0.000000 0.962700 0.533470
0.000000 0.967886 0.518583
0.000000 0.975200 0.494101
0.000000 0.987478 0.440739
0.000000 1.000000 0.205743
0.602143 1.000000 0.000000
1.000000 0.999298 0.000000
0.000000 0.000652 0.012054
0.039560 0.000000 0.028361
0.142047 0.000000 0.049741
0.249290 0.000000 0.075165
0.359654 0.000000 0.103393
0.501006 0.000000 0.141716
0.718534 0.000000 0.203547
1.000000 0.000000 0.290699
1.000000 0.000000 0.298927
0.000000 0.036581 0.034401
0.041468 0.041468 0.041468
0.172605 0.029814 0.047009
0.293165 0.000000 0.052520
0.394314 0.000000 0.083756
0.528440 0.000000 0.125177
0.739464 0.000000 0.190345
1.000000 0.000000 0.280256
1.000000 0.000000 0.293217
0.000000 0.136136 0.082292
0.000000 0.146484 0.064089
0.153109 0.148872 0.028874
0.293492 0.143408 0.024562
0.425747 0.124734 0.011983
0.587207 0.071391 0.000000
0.800428 0.000000 0.109596
1.000000 0.000000 0.237143
1.000000 0.000000 0.273189
0.000000 0.240480 0.137718
0.000000 0.247725 0.123929
0.077010 0.265108 0.000000
0.267872 0.260471 0.000000
0.410512 0.258991 0.000000
0.577093 0.249213 0.000000
0.823029 0.211430 0.000000
1.000000 0.000000 0.045537
1.000000 0.000000 0.226519
0.000000 0.347824 0.197390
0.000000 0.353418 0.186400
0.000000 0.370780 0.115365
0.223477 0.377881 0.000000
0.384838 0.374757 0.000000
0.563042 0.375606 0.000000
0.816627 0.364301 0.000000
1.000000 0.291249 0.000000
1.000000 0.000000 0.088414
0.000000 0.485277 0.275661
0.000000 0.489646 0.266919
0.000000 0.502956 0.227891
0.046196 0.525036 0.000000
0.337037 0.523994 0.000000
0.534684 0.521168 0.000000
0.803388 0.523743 0.000000
1.000000 0.470080 0.000000
1.000000 0.267706 0.000000
0.000000 0.696774 0.397987
0.000000 0.700077 0.391297
0.000000 0.710058 0.366645
0.000000 0.727044 0.301584
0.084260 0.750161 0.000000
0.462237 0.749581 0.000000
0.765310 0.746508 0.000000
1.000000 0.681823 0.000000
1.000000 0.474777 0.000000
0.000000 0.914363 0.523794
0.000000 0.916271 0.519081
0.000000 0.922016 0.503467
0.000000 0.931684 0.471418
0.000000 0.945483 0.407639
0.000000 0.969400 0.149802
0.581084 0.966190 0.000000
0.974749 0.951146 0.000000
1.000000 0.707157 0.000000
0.000000 0.958624 0.547234
0.000000 0.959653 0.544723
0.000000 0.962748 0.536801
0.000000 0.967926 0.522173
0.000000 0.975231 0.498138
0.000000 0.987492 0.445872
0.000000 1.000000 0.221015
0.599238 1.000000 0.000000
1.000000 0.999448 0.000000
0.000000 0.003934 0.066844
0.045988 0.000000 0.105101
0.144923 0.000000 0.119037
0.251636 0.000000 0.141996
0.361563 0.000000 0.166426
0.502541 0.000000 0.199304
0.719716 0.000000 0.253320
1.000000 0.000000 0.330125
1.000000 0.000000 0.321222
0.000000 0.045614 0.096134
0.036415 0.045934 0.137633
0.170826 0.028536 0.144445
0.291822 0.000000 0.155142
0.394580 0.000000 0.168686
0.529217 0.000000 0.195804
0.740330 0.000000 0.246894
1.000000 0.000000 0.322646
1.000000 0.000000 0.316409
0.000000 0.138507 0.133615
0.000000 0.147054 0.141945
0.148937 0.148937 0.148937
0.293781 0.141996 0.155703
0.426165 0.122698 0.160651
0.590949 0.057704 0.163105
0.800349 0.000000 0.209148
1.000000 0.000000 0.292289
1.000000 0.000000 0.299608
0.000000 0.242105 0.181981
0.000000 0.248834 0.179176
0.054392 0.266394 0.149290
0.266023 0.261030 0.144162
0.415328 0.256671 0.147964
0.588465 0.240297 0.146761
0.844538 0.176530 0.133090
1.000000 0.000000 0.195740
1.000000 0.000000 0.261432
0.000000 0.349068 0.235241
0.000000 0.354443 0.229806
0.000000 0.370944 0.196759
0.201723 0.382125 0.126920
0.384951 0.375992 0.120343
0.574765 0.371401 0.116053
0.840535 0.346444 0.090476
1.000000 0.233203 0.000000
1.000000 0.000000 0.167126
0.000000 0.486244 0.307240
0.000000 0.490515 0.301286
0.000000 0.503487 0.275100
0.000000 0.526216 0.165518
0.309942 0.530558 0.045800
0.536626 0.523110 0.010381
0.821807 0.516905 0.000000
1.000000 0.450737 0.000000
1.000000 0.233351 0.000000
0.000000 0.697503 0.423019
0.000000 0.700766 0.417559
0.000000 0.710618 0.397528
0.000000 0.727352 0.346169
0.000000 0.751974 0.167395
0.437597 0.755283 0.000000
0.766852 0.748014 0.000000
1.000000 0.676954 0.000000
1.000000 0.464178 0.000000
0.000000 0.914641 0.540984
0.000000 0.916535 0.536718
0.000000 0.922239 0.522609
0.000000 0.931830 0.493802
0.000000 0.945507 0.437404
0.000000 0.969166 0.241272
0.564280 0.969771 0.000000
0.975595 0.951973 0.000000
1.000000 0.704551 0.000000
0.000000 0.958780 0.556549
0.000000 0.959806 0.554162
0.000000 0.962889 0.546636
0.000000 0.968049 0.532754
0.000000 0.975324 0.509999
0.000000 0.987532 0.460835
0.000000 1.000000 0.260901
0.590168 1.000000 0.000000
1.000000 0.999897 0.000000
0.000000 0.011253 0.133792
0.045111 0.000000 0.189313
0.153285 0.000000 0.199084
0.254771 0.000000 0.214662
0.364379 0.000000 0.238140
0.504924 0.000000 0.268897
0.721611 0.000000 0.318341
1.000000 0.000000 0.385763
1.000000 0.000000 0.354811
0.000000 0.056363 0.160424
0.019920 0.048310 0.229339
0.173026 0.028408 0.239552
0.289595 0.000000 0.244976
0.394868 0.000000 0.253419
0.530396 0.000000 0.274850
0.741715 0.000000 0.318026
1.000000 0.000000 0.381548
1.000000 0.000000 0.351162
0.000000 0.147907 0.197998
0.000000 0.154286 0.220624
0.146429 0.154363 0.254099
0.290803 0.141270 0.258391
0.424679 0.121405 0.268516
0.590220 0.054032 0.279244
0.800199 0.000000 0.307487
1.000000 0.000000 0.363814
1.000000 0.000000 0.338422
0.000000 0.244830 0.237250
0.000000 0.250785 0.243054
0.028070 0.266616 0.258796
0.260991 0.260991 0.260991
0.415049 0.255369 0.268163
0.588752 0.238422 0.275780
0.844347 0.174322 0.282274
1.000000 0.000000 0.311085
1.000000 0.000000 0.309936
0.000000 0.351150 0.286316
0.000000 0.356181 0.286334
0.000000 0.371346 0.280555
0.190173 0.382792 0.262173
0.381700 0.376249 0.258507
0.574853 0.370501 0.265671
0.841490 0.344508 0.268571
1.000000 0.221565 0.242030
1.000000 0.000000 0.246591
0.000000 0.487860 0.352680
0.000000 0.491974 0.349966
0.000000 0.504401 0.337235
0.000000 0.525841 0.288313
0.299409 0.531706 0.245610
0.534332 0.523424 0.239986
0.825174 0.515001 0.240828
1.000000 0.437017 0.202918
1.000000 0.166050 0.065446
0.000000 0.698719 0.461089
0.000000 0.701918 0.457274
0.000000 0.711560 0.443215
0.000000 0.727880 0.407731
0.000000 0.751721 0.305990
0.406618 0.761147 0.174907
0.767910 0.749724 0.149140
1.000000 0.668509 0.075446
1.000000 0.443691 0.000000
0.000000 0.915106 0.568153
0.000000 0.916978 0.564544
0.000000 0.922611 0.552623
0.000000 0.932076 0.528423
0.000000 0.945552 0.481917
0.000000 0.968788 0.338327
0.531218 0.976179 0.000000
0.977003 0.953349 0.000000
1.000000 0.699789 0.000000
0.000000 0.959042 0.571638
0.000000 0.960062 0.569445
0.000000 0.963126 0.562534
0.000000 0.968253 0.549806
0.000000 0.975481 0.529008
0.000000 0.987601 0.484468
0.000000 1.000000 0.314846
0.573761 1.000000 0.000000
1.000000 1.000000 0.000000
0.000000 0.023719 0.202584
0.033515 0.000000 0.277277
0.158493 0.000000 0.283459
0.263911 0.000000 0.296525
0.367645 0.000000 0.312920
0.507920 0.000000 0.342952
0.724116 0.000000 0.390291
1.000000 0.000000 0.450602
1.000000 0.000000 0.396337
0.000000 0.069294 0.226337
0.000000 0.053329 0.310155
0.170769 0.026121 0.333827
0.293042 0.000000 0.337429
0.394971 0.000000 0.336708
0.531818 0.000000 0.355671
0.743531 0.000000 0.394837
1.000000 0.000000 0.449320
1.000000 0.000000 0.393894
0.000000 0.157701 0.264504
0.000000 0.161750 0.294826
0.138140 0.158379 0.352232
0.292197 0.144625 0.359797
0.422403 0.119484 0.366633
0.589088 0.048491 0.382696
0.799948 0.000000 0.402781
1.000000 0.000000 0.442082
1.000000 0.000000 0.385228
0.000000 0.254551 0.303217
0.000000 0.259669 0.315273
0.000000 0.272757 0.362222
0.259325 0.266884 0.371846
0.411292 0.254788 0.374942
0.586796 0.237510 0.386542
0.843443 0.172252 0.401530
1.000000 0.000000 0.416433
1.000000 0.000000 0.365651
0.000000 0.354080 0.343738
0.000000 0.358670 0.348211
0.000000 0.372149 0.361350
0.177222 0.382899 0.374278
0.376130 0.376130 0.376130
0.574331 0.369147 0.385334
0.841517 0.342659 0.396982
1.000000 0.219591 0.382010
1.000000 0.000000 0.323781
0.000000 0.490131 0.406437
0.000000 0.494034 0.406745
0.000000 0.505741 0.405597
0.000000 0.525500 0.392820
0.288193 0.532238 0.377738
0.530696 0.523660 0.373300
0.825437 0.513871 0.384128
1.000000 0.434440 0.358556
1.000000 0.163053 0.237486
0.000000 0.700427 0.508597
0.000000 0.703537 0.506530
0.000000 0.712893 0.498616
0.000000 0.728654 0.477931
0.000000 0.751443 0.421658
0.393249 0.762425 0.353174
0.765473 0.750049 0.344170
1.000000 0.667361 0.308408
1.000000 0.434592 0.190548
0.000000 0.915760 0.603553
0.000000 0.917601 0.600720
0.000000 0.923138 0.591356
0.000000 0.932429 0.572390
0.000000 0.945628 0.536433
0.000000 0.968284 0.433839
0.497662 0.981413 0.201323
0.977793 0.954649 0.155298
1.000000 0.692101 0.000000
0.000000 0.959409 0.591930
0.000000 0.960421 0.589984
0.000000 0.963459 0.583853
0.000000 0.968542 0.572577
0.000000 0.975702 0.554209
0.000000 0.987700 0.515235
0.000000 1.000000 0.375443
0.547570 1.000000 0.000000
1.000000 1.000000 0.000000
0.000000 0.047536 0.290626
0.000322 0.000000 0.390610
0.159521 0.000000 0.393702
0.272443 0.000000 0.403455
0.379427 0.000000 0.417631
0.512106 0.000000 0.438676
0.727902 0.000000 0.484930
1.000000 0.000000 0.538496
1.000000 0.000000 0.455477
0.000000 0.088115 0.311135
0.000000 0.074075 0.380085
0.160759 0.019827 0.453035
0.293698 0.000000 0.451673
0.402709 0.000000 0.448814
0.533649 0.000000 0.457430
0.746243 0.000000 0.494166
1.000000 0.000000 0.540261
1.000000 0.000000 0.454435
0.000000 0.171374 0.349160
0.000000 0.172841 0.383714
0.116952 0.161953 0.473471
0.289436 0.147140 0.483329
0.426493 0.119800 0.493065
0.586945 0.038030 0.504715
0.799433 0.000000 0.518566
1.000000 0.000000 0.543355
1.000000 0.000000 0.450368
0.000000 0.266843 0.388394
0.000000 0.270758 0.405729
0.000000 0.278594 0.473415
0.251895 0.272741 0.500610
0.412004 0.260346 0.507249
0.583355 0.235904 0.514330
0.841838 0.168708 0.536764
1.000000 0.000000 0.540495
1.000000 0.000000 0.440149
0.000000 0.366537 0.428127
0.000000 0.370552 0.436949
0.000000 0.381840 0.466689
0.160198 0.390883 0.510317
0.374139 0.383725 0.518535
0.569387 0.368423 0.522271
0.839145 0.341457 0.539730
1.000000 0.216276 0.528364
1.000000 0.000000 0.417130
0.000000 0.493905 0.480028
0.000000 0.497486 0.483518
0.000000 0.508094 0.493858
0.000000 0.525356 0.510683
0.272503 0.532350 0.521206
0.523492 0.523492 0.523492
0.824975 0.512018 0.537561
1.000000 0.431678 0.513553
1.000000 0.160485 0.371476
0.000000 0.703260 0.576809
0.000000 0.706229 0.576813
0.000000 0.715133 0.575957
0.000000 0.730012 0.570934
0.000000 0.751164 0.552318
0.378609 0.762895 0.525623
0.760998 0.750373 0.517935
1.000000 0.665356 0.480576
1.000000 0.432161 0.343995
0.000000 0.916850 0.656738
0.000000 0.918640 0.654930
0.000000 0.924022 0.648904
0.000000 0.933033 0.636565
0.000000 0.945787 0.613135
0.000000 0.967513 0.549369
0.481111 0.982154 0.422798
0.974576 0.954410 0.403418
1.000000 0.690946 0.283780
0.000000 0.960019 0.623626
0.000000 0.961017 0.622037
0.000000 0.964013 0.617031
0.000000 0.969022 0.607825
0.000000 0.976074 0.592863
0.000000 0.987872 0.561402
0.000000 1.000000 0.454920
0.506055 1.000000 0.134175
1.000000 1.000000 0.025131
0.000000 0.087713 0.426056
0.000000 0.063279 0.491583
0.146123 0.000000 0.566051
0.278015 0.000000 0.571662
0.392461 0.000000 0.582158
0.529938 0.000000 0.599955
0.734319 0.000000 0.632117
1.000000 0.000000 0.676961
1.000000 0.000000 0.552705
0.000000 0.120445 0.442780
0.000000 0.108749 0.496962
0.122414 0.002130 0.636026
0.287540 0.000000 0.623527
0.408981 0.000000 0.619416
0.547850 0.000000 0.624947
0.750710 0.000000 0.646385
1.000000 0.000000 0.682216
1.000000 0.000000 0.553434
0.000000 0.195365 0.478887
0.000000 0.194075 0.514161
0.028422 0.164608 0.656739
0.275416 0.147432 0.668512
0.425524 0.116554 0.680441
0.594738 0.016258 0.695815
0.798041 0.000000 0.687587
1.000000 0.000000 0.696690
1.000000 0.000000 0.555035
0.000000 0.287019 0.518937
0.000000 0.289146 0.540538
0.000000 0.290299 0.620964
0.227205 0.279234 0.689350
0.405823 0.266007 0.698926
0.587824 0.239522 0.710296
0.838218 0.161105 0.726791
1.000000 0.000000 0.716515
1.000000 0.000000 0.555646
0.000000 0.385466 0.559133
0.000000 0.388476 0.572372
0.000000 0.396139 0.617471
0.098023 0.400541 0.705802
0.362557 0.392707 0.716554
0.569749 0.377037 0.725341
0.834054 0.338883 0.736698
1.000000 0.209418 0.724904
1.000000 0.000000 0.551745
0.000000 0.513018 0.609966
0.000000 0.516092 0.617165
0.000000 0.524973 0.640175
0.000000 0.538342 0.685212
0.247988 0.544380 0.729708
0.519947 0.534996 0.740794
0.817819 0.510833 0.747304
1.000000 0.428555 0.717361
1.000000 0.155183 0.537232
0.000000 0.708987 0.689672
0.000000 0.711693 0.692309
0.000000 0.719754 0.700167
0.000000 0.733012 0.713089
0.000000 0.751216 0.730833
0.351190 0.763149 0.746374
0.750167 0.750167 0.750167
1.000000 0.661403 0.696866
1.000000 0.429021 0.521104
0.000000 0.919070 0.749166
0.000000 0.920764 0.748833
0.000000 0.925846 0.747534
0.000000 0.934318 0.744261
0.000000 0.946220 0.736850
0.000000 0.966184 0.714301
0.459137 0.981402 0.664415
0.967564 0.953671 0.645451
1.000000 0.688803 0.485275
0.000000 0.961254 0.681665
0.000000 0.962224 0.680654
0.000000 0.965137 0.677455
0.000000 0.970002 0.671533
0.000000 0.976840 0.661849
0.000000 0.988247 0.641483
0.000000 1.000000 0.575551
0.487365 1.000000 0.421232
1.000000 1.000000 0.399695
0.000000 0.148040 0.629407
0.000000 0.134591 0.674734
0.060291 0.000000 0.827404
0.266018 0.000000 0.829357
0.399315 0.000000 0.835267
0.548026 0.000000 0.847868
0.753599 0.000000 0.866243
1.000000 0.000000 0.884492
1.000000 0.000000 0.703076
0.000000 0.173390 0.642422
0.000000 0.164116 0.683594
0.000000 0.066164 0.849887
0.259302 0.000000 0.879354
0.406083 0.000000 0.875024
0.560051 0.000000 0.877430
0.765532 0.000000 0.883678
1.000000 0.000000 0.893218
1.000000 0.000000 0.705769
0.000000 0.237241 0.674342
0.000000 0.233905 0.706522
0.000000 0.206613 0.826842
0.222887 0.140059 0.943440
0.408168 0.100832 0.956496
0.590092 0.000000 0.964665
0.799047 0.000000 0.934918
1.000000 0.000000 0.918728
1.000000 0.000000 0.713516
0.000000 0.321570 0.713840
0.000000 0.321616 0.737184
0.000000 0.316463 0.818796
0.137028 0.284548 0.965399
0.378239 0.268463 0.975169
0.576785 0.237046 0.982716
0.826677 0.144370 0.988667
1.000000 0.000000 0.959238
1.000000 0.000000 0.725311
0.000000 0.414505 0.752309
0.000000 0.415812 0.768369
0.000000 0.417811 0.821858
0.000000 0.410977 0.937779
0.317636 0.396114 0.985300
0.545387 0.375973 0.989622
0.808712 0.329362 0.991221
1.000000 0.194766 0.988687
1.000000 0.000000 0.739441
0.000000 0.528291 0.787428
0.000000 0.530052 0.797313
0.000000 0.534743 0.829086
0.000000 0.540012 0.891339
0.147021 0.538239 0.986075
0.478088 0.524040 0.992173
0.773227 0.492718 0.992122
1.000000 0.422143 0.986542
1.000000 0.143896 0.751574
0.000000 0.692702 0.831590
0.000000 0.694489 0.836398
0.000000 0.699720 0.851333
0.000000 0.707957 0.878263
0.000000 0.718228 0.921812
0.276034 0.723685 0.980879
0.682149 0.703250 0.986965
1.000000 0.657225 0.979188
1.000000 0.425526 0.743933
0.000000 0.923638 0.898897
0.000000 0.925153 0.900373
0.000000 0.929680 0.904785
0.000000 0.937161 0.912077
0.000000 0.947508 0.922162
0.000000 0.964311 0.938541
0.417690 0.979008 0.956922
0.951064 0.951065 0.951064
1.000000 0.684580 0.723085
0.000000 0.963768 0.781860
0.000000 0.964686 0.781668
0.000000 0.967438 0.781012
0.000000 0.972026 0.779632
0.000000 0.978453 0.777039
0.000000 0.989112 0.770773
0.000000 1.000000 0.747928
0.462636 1.000000 0.689551
1.000000 1.000000 0.669606
0.000000 0.177513 0.728754
0.000000 0.170300 0.752841
0.000000 0.132215 0.836629
0.126981 0.000000 0.940454
0.278900 0.000000 0.932089
0.410214 0.000000 0.923255
0.574055 0.000000 0.915118
0.786921 0.000000 0.913445
1.000000 0.000000 0.925444
0.000000 0.191546 0.732906
0.000000 0.185523 0.755753
0.000000 0.155042 0.834608
0.089552 0.000000 0.970613
0.272725 0.000000 0.957912
0.411819 0.000000 0.944035
0.579214 0.000000 0.929865
0.792900 0.000000 0.922446
1.000000 0.000000 0.930055
0.000000 0.228859 0.743724
0.000000 0.225181 0.763475
0.000000 0.207651 0.830341
0.000000 0.124290 0.981083
0.242255 0.014553 1.000000
0.412687 0.000000 1.000000
0.593292 0.000000 0.974096
0.810319 0.000000 0.949273
1.000000 0.000000 0.943722
0.000000 0.280506 0.758007
0.000000 0.278813 0.774025
0.000000 0.270702 0.827039
0.000000 0.239826 0.938797
0.197583 0.185817 1.000000
0.395132 0.156206 1.000000
0.606610 0.063847 1.000000
0.837695 0.000000 0.993569
1.000000 0.000000 0.965968
0.000000 0.339659 0.773412
0.000000 0.339235 0.785951
0.000000 0.336554 0.826601
0.000000 0.325346 0.907626
0.104829 0.290162 1.000000
0.362385 0.272414 1.000000
0.589238 0.233420 1.000000
0.858840 0.114855 1.000000
1.000000 0.000000 0.996086
0.000000 0.418498 0.792885
0.000000 0.418915 0.801922
0.000000 0.419597 0.830629
0.000000 0.418343 0.884975
0.000000 0.408610 0.980873
0.296974 0.390758 1.000000
0.557679 0.365874 1.000000
0.841863 0.309103 1.000000
1.000000 0.117915 1.000000
0.000000 0.540185 0.822359
0.000000 0.541066 0.827836
0.000000 0.543542 0.844873
0.000000 0.547038 0.875582
0.000000 0.550243 0.924755
0.000000 0.548577 1.000000
0.481372 0.532559 1.000000
0.803523 0.497637 1.000000
1.000000 0.418347 1.000000
0.000000 0.718012 0.868099
0.000000 0.718971 0.870725
0.000000 0.721810 0.878745
0.000000 0.726419 0.892629
0.000000 0.732581 0.913325
0.000000 0.741888 0.951702
0.241994 0.750747 1.000000
0.706330 0.729188 1.000000
1.000000 0.680262 1.000000
0.000000 0.968938 0.943051
0.000000 0.969758 0.943850
0.000000 0.972214 0.946244
0.000000 0.976290 0.950217
0.000000 0.981961 0.955745
0.000000 0.991256 0.964804
0.000000 1.000000 0.982718
0.415637 1.000000 1.000000
1.000000 1.000000 1.000000
